X:111
T: Die Schlangenkoechin
N: Q0079B
O: Mitteleuropa, Deutschland
N: Zweite Zeile und letzte Zeilen = Refrain.
R: Ballade, Mord; Reigen - Tanz, antiphonal
M: 2/4
L: 1/16
K: G
G2 | B3BB2A2 | G4G4 |
d4d2c2 | B4z2
G2 | e3ee2e2 | d4G4 |
B4A2A2 | G4z2

@@@ Tune index: 1166
